X:894
T:Ale Is Dear, The
R:reel
H:Scottish
Z:id:hn-reel-894
M:C|
L:1/8
K:Bm
f2ef B2fe | faef cAce | f2ef B2fe |1 faec B3e :|2 faec B3A ||
|: ~B3c d2cB | ~A3B ABcA |1 ~B3c d2cB | f2ec B3A :|2 d2fd cdec | f2ec B3e ||

